assets/front/images/header-galerie.svg

<svg viewBox="0 0 62.92 62.92" xmlns="http://www.w3.org/2000/svg"><path d="m62.52 31.46c0 17.15-13.9 31.06-31.06 31.06s-31.05-13.91-31.05-31.06 13.9-31.05 31.05-31.05 31.06 13.9 31.06 31.06" fill="#fff"/><circle cx="31.46" cy="31.46" fill="none" r="31.06" stroke="#c6c6c6" stroke-miterlimit="10" stroke-width=".81" transform="matrix(.25662676 -.96651058 .96651058 .25662676 -7.02 53.79)"/><path d="m59.69 31.46c0 15.59-12.64 28.23-28.23 28.23s-28.23-12.64-28.23-28.23 12.64-28.23 28.23-28.23 28.23 12.64 28.23 28.23"/><path d="m31.43 28.64c2.42 0 4.3 1.88 4.3 4.3s-1.88 4.3-4.3 4.3-4.3-1.95-4.3-4.3 1.95-4.3 4.3-4.3m-7.12 4.3c0 3.96 3.16 7.12 7.12 7.12s7.19-3.16 7.19-7.12-3.22-7.19-7.19-7.19-7.12 3.23-7.12 7.19m18.61-11.49h-4.57l-2.62-2.89h-8.6c-2.11 0-2.06 2.89 0 2.89h7.39l2.62 2.89h5.78v17.2h-22.91v-12.9c0-2.07-2.89-1.98-2.89 0v12.9c0 1.54 1.28 2.82 2.89 2.82h22.91c1.54 0 2.89-1.28 2.89-2.82v-17.2c0-1.61-1.34-2.89-2.89-2.89" fill="#fff"/></svg>

<?xml version="1.0" encoding="UTF-8" standalone="no"?>
<!DOCTYPE svg PUBLIC "-//W3C//DTD SVG 1.1//EN" "http://www.w3.org/Graphics/SVG/1.1/DTD/svg11.dtd">
<svg width="100%" height="100%" viewBox="0 0 256 256" version="1.1" xmlns="http://www.w3.org/2000/svg" xmlns:xlink="http://www.w3.org/1999/xlink" xml:space="preserve" xmlns:serif="http://www.serif.com/" style="fill-rule:evenodd;clip-rule:evenodd;stroke-linecap:round;stroke-linejoin:round;stroke-miterlimit:1.5;">
    <g transform="matrix(12.4028,0,0,12.1746,-237.914,-200.431)">
        <ellipse cx="29.502" cy="26.977" rx="9.836" ry="10.021" style="fill:none;stroke:black;stroke-width:0.68px;"/>
    </g>
    <g transform="matrix(12.4028,0,0,12.1746,-237.914,-200.431)">
        <ellipse cx="29.502" cy="26.977" rx="9.836" ry="10.021" style="stroke:black;stroke-width:0.68px;"/>
    </g>
    <g transform="matrix(4.18264,0,0,4.18264,-3.60683,-3.58592)">
        <path d="M31.43,28.64C33.85,28.64 35.73,30.52 35.73,32.94C35.73,35.36 33.85,37.24 31.43,37.24C29.01,37.24 27.13,35.29 27.13,32.94C27.13,30.59 29.08,28.64 31.43,28.64M24.31,32.94C24.31,36.9 27.47,40.06 31.43,40.06C35.39,40.06 38.62,36.9 38.62,32.94C38.62,28.98 35.4,25.75 31.43,25.75C27.46,25.75 24.31,28.98 24.31,32.94M42.92,21.45L38.35,21.45L35.73,18.56L27.13,18.56C25.02,18.56 25.07,21.45 27.13,21.45L34.52,21.45L37.14,24.34L42.92,24.34L42.92,41.54L20.01,41.54L20.01,28.64C20.01,26.57 17.12,26.66 17.12,28.64L17.12,41.54C17.12,43.08 18.4,44.36 20.01,44.36L42.92,44.36C44.46,44.36 45.81,43.08 45.81,41.54L45.81,24.34C45.81,22.73 44.47,21.45 42.92,21.45" style="fill:white;fill-rule:nonzero;"/>
    </g>
</svg>
